public_html/sites/all/modules/custom/helpertheme/images/icons/production.svg

<svg xmlns="http://www.w3.org/2000/svg" viewBox="0 0 160 160"><path d="m 4.5,1.300 a 2.500,2.500 0 0 0 -2.5,2.5 L 2,116.300 a 2.500,2.500 0 0 0 2.5,2.5 l 9.400,0 a 2.500,2.500 0 1 0 0,-5 L 7,113.800 7,6.300 l 144,0 0,107.499 -9.5,0 a 2.500,2.500 0 1 0 0,5 l 12,0 a 2.500,2.500 0 0 0 2.5,-2.5 L 156,3.800 a 2.500,2.500 0 0 0 -2.5,-2.5 l -149,0 z" /><path d="M 23.300 19.800 A 2.500 2.500 0 0 0 20.800 22.300 L 20.800 42.099 A 2.500 2.500 0 0 0 23.300 44.599 L 79.699 44.599 A 2.500 2.500 0 0 0 82.199 42.099 L 82.199 34.699 L 95.5 34.699 L 95.5 60 A 2.500 2.500 0 1 0 100.5 60 L 100.5 34.699 L 113.800 34.699 L 113.800 42.099 A 2.500 2.500 0 0 0 116.300 44.599 L 135.699 44.599 A 2.500 2.500 0 0 0 138.199 42.099 L 138.199 22.300 A 2.500 2.500 0 0 0 135.699 19.800 L 116.300 19.800 A 2.500 2.500 0 0 0 113.800 22.300 L 113.800 29.699 L 98.404 29.699 A 2.500 2.500 0 0 0 97.962 29.664 A 2.500 2.500 0 0 0 97.595 29.699 L 82.199 29.699 L 82.199 22.300 A 2.500 2.500 0 0 0 79.699 19.800 L 23.300 19.800 z M 25.800 24.800 L 77.199 24.800 L 77.199 31.794 A 2.500 2.500 0 0 0 77.199 32.603 L 77.199 39.599 L 25.800 39.599 L 25.800 24.800 z M 118.800 24.800 L 133.199 24.800 L 133.199 39.599 L 118.800 39.599 L 118.800 32.603 A 2.500 2.500 0 0 0 118.800 31.794 L 118.800 24.800 z M 29.900 49.400 A 2.500 2.500 0 1 0 29.900 54.400 L 79.699 54.400 A 2.500 2.500 0 1 0 79.699 49.400 L 29.900 49.400 z M 116.248 58.673 C 108.539 58.765 100.859 61.740 95 67.599 C 85.2 77.399 83.500 92.200 89.800 103.800 C 90.400 104.900 91.899 105.099 92.699 104.199 C 93.299 103.599 93.4 102.8 93 102 C 87.6 91.8 89.099 78.799 97.699 70.199 C 106.199 61.699 118.9 60.100 129 65.400 C 129.3 65.600 129.399 65.999 129.099 66.199 L 128.300 67 C 128.000 67.3 128.199 67.800 128.599 67.800 L 134.599 68.400 C 134.899 68.400 135.199 68.200 135.099 67.900 L 134.5 61.900 C 134.5 61.500 133.999 61.299 133.699 61.599 L 132.599 62.699 C 132.399 62.899 132.2 62.900 132 62.800 C 127.612 60.250 122.719 58.880 117.789 58.693 C 117.275 58.673 116.761 58.667 116.248 58.673 z M 23.300 59.300 A 2.500 2.500 0 1 0 23.300 64.300 L 64.5 64.300 A 2.500 2.500 0 1 0 64.5 59.300 L 23.300 59.300 z M 23.300 68.5 A 2.500 2.500 0 1 0 23.300 73.5 L 53 73.5 A 2.500 2.500 0 1 0 53 68.5 L 23.300 68.5 z M 115.468 70.896 C 115.35 70.874 115.224 70.875 115.099 70.900 L 110.5 71.800 C 110 71.900 109.700 72.400 109.800 72.900 L 110.300 75.199 C 110.400 75.599 110.200 75.999 109.800 76.199 C 108.700 76.699 107.700 77.399 106.900 78.199 C 106.600 78.499 106.100 78.500 105.800 78.300 L 103.800 77 C 103.400 76.7 102.8 76.800 102.5 77.300 L 99.900 81.199 C 99.600 81.599 99.699 82.2 100.199 82.5 L 102.199 83.800 C 102.599 84.000 102.699 84.500 102.599 84.900 C 102.199 86.000 102.000 87.200 101.900 88.400 C 101.900 88.800 101.599 89.200 101.199 89.300 L 98.900 89.800 C 98.400 89.900 98.099 90.400 98.199 90.900 L 99.099 95.5 C 99.199 96 99.699 96.299 100.199 96.199 L 102.5 95.699 C 102.9 95.599 103.3 95.799 103.5 96.199 C 104 97.299 104.7 98.299 105.5 99.099 C 105.8 99.399 105.799 99.899 105.599 100.199 L 104.300 102.199 C 104.000 102.599 104.099 103.2 104.599 103.5 L 108.5 106.099 C 108.9 106.399 109.500 106.300 109.800 105.800 L 111.099 103.800 C 111.299 103.400 111.799 103.300 112.199 103.400 C 113.299 103.800 114.499 103.999 115.699 104.099 C 116.099 104.099 116.499 104.400 116.599 104.800 L 117.099 107.099 C 117.199 107.599 117.699 107.900 118.199 107.800 L 122.800 106.900 C 123.300 106.800 123.6 106.300 123.5 105.800 L 123 103.5 C 122.9 103.1 123.1 102.7 123.5 102.5 C 124.6 102 125.600 101.3 126.400 100.5 C 126.700 100.2 127.2 100.200 127.5 100.400 L 129.5 101.699 C 129.9 101.999 130.500 101.900 130.800 101.400 L 133.400 97.5 C 133.700 97.1 133.599 96.499 133.099 96.199 L 131.099 94.900 C 130.699 94.700 130.599 94.200 130.699 93.800 C 131.099 92.600 131.300 91.500 131.400 90.300 C 131.400 89.900 131.699 89.500 132.099 89.400 L 134.400 88.900 C 134.900 88.800 135.199 88.300 135.099 87.800 L 134.199 83.199 C 134.099 82.699 133.599 82.4 133.099 82.5 L 130.800 83 C 130.400 83.1 130.000 82.9 129.800 82.5 C 129.300 81.4 128.600 80.399 127.800 79.599 C 127.500 79.299 127.499 78.8 127.699 78.5 L 129 76.5 C 129.3 76.1 129.199 75.499 128.699 75.199 L 124.800 72.599 C 124.400 72.299 123.8 72.400 123.5 72.900 L 122.199 74.900 C 121.999 75.300 121.499 75.400 121.099 75.300 C 119.999 74.900 118.799 74.699 117.599 74.599 C 117.199 74.599 116.799 74.300 116.699 73.900 L 116.199 71.599 C 116.124 71.224 115.825 70.962 115.468 70.896 z M 141.710 73.640 C 141.298 73.679 140.899 73.861 140.599 74.199 C 139.999 74.799 139.900 75.600 140.300 76.400 C 145.800 86.600 144.299 99.599 135.699 108.199 C 126.999 116.899 113.799 118.299 103.599 112.599 C 103.399 112.499 103.3 112.2 103.5 112 L 104.699 110.800 C 104.899 110.600 104.8 110.199 104.5 110.199 L 98.099 109.599 C 97.899 109.599 97.699 109.8 97.699 110 L 98.300 116.400 C 98.300 116.700 98.700 116.899 98.900 116.599 L 100.199 115.300 C 100.299 115.200 100.499 115.199 100.699 115.199 C 112.499 122.399 128.100 121.000 138.300 110.800 C 148.000 101.000 149.8 86.099 143.5 74.599 C 143.125 73.912 142.398 73.576 141.710 73.640 z M 23.300 77.800 A 2.500 2.500 0 1 0 23.300 82.800 L 41.099 82.800 A 2.500 2.500 0 1 0 41.099 77.800 L 23.300 77.800 z M 116.712 79.097 C 121.359 79.105 125.537 82.386 126.5 87.199 C 127.6 92.599 124.099 97.9 118.599 99 C 113.199 100.1 107.900 96.599 106.800 91.099 C 105.700 85.699 109.199 80.400 114.699 79.300 C 115.374 79.163 116.049 79.096 116.712 79.097 z M 116.699 83.400 A 5.800 5.800 0 0 0 110.900 89.199 A 5.800 5.800 0 0 0 116.699 95 A 5.800 5.800 0 0 0 122.5 89.199 A 5.800 5.800 0 0 0 116.699 83.400 z " /><path d="M97.7,99.4L90.4,96c-0.6-0.3-1.3,0-1.7,0.7l-8.2,13.4c-0.4,0.6-1.1,0.8-1.8,0.5l-22.3-10.3c0,0,0-0.1,0-0.1  c0-5.7-4.6-10.4-10.4-10.4c-2.4,0-4.6,0.8-6.4,2.2c-0.2,0.2-0.5,0.2-0.8,0.1l-9.4-4.4c-2.4-1.1-5.3-0.4-6.8,1.8  c-0.8,1.2-0.9,4-0.9,4v47.6c0,0.1-0.1,0.2-0.2,0.2h-5.3c-1,0-1.8,0.8-1.8,1.8v8.9c0,1,0.8,1.8,1.8,1.8h72.4c1,0,1.8-0.8,1.8-1.8  v-8.9c0-1-0.8-1.8-1.8-1.8h-9.3c0-0.1,0.1-0.1,0.1-0.2l11.5-18.8c0.1-0.1,0.1-0.3,0.2-0.4l6.9-20.9C98.5,100.4,98.2,99.6,97.7,99.4z   M46,94.8c3,0,5.4,2.4,5.4,5.4c0,3-2.4,5.4-5.4,5.4c-3,0-5.4-2.4-5.4-5.4C40.6,97.2,43.1,94.8,46,94.8z M26.3,141.2V99.1  c0-0.6,0.6-0.9,1.1-0.7l8.2,3.8c0.2,0.1,0.4,0.3,0.4,0.5c0.6,2.4,2,4.5,4,5.9c0.3,0.2,0.4,0.6,0.3,0.9c-1.5,4.1-11.2,29.7-12,31.8  c0,0.1-0.1,0.1-0.2,0.1h-1.5C26.4,141.4,26.3,141.3,26.3,141.2z M33,141.1L44.4,111c0.1-0.3,0.4-0.5,0.8-0.5c0.3,0,0.6,0,0.9,0  c0.3,0,0.6,0,0.9,0c0.3,0,0.7,0.2,0.8,0.5L59,141.1c0.1,0.1-0.1,0.3-0.2,0.3H33.3C33.1,141.4,33,141.3,33,141.1z M63.8,141.3  l-11.2-29.7c-0.2-0.6,0.4-1.2,1-1l20.6,9.6c0.6,0.3,1,1,0.7,1.7l-4.9,15c-0.2,0.7,0,1.5,0.5,1.7l5.3,2.4c0.2,0.1,0.1,0.4-0.1,0.4H64  C63.9,141.4,63.9,141.4,63.8,141.3z" /></svg>

<svg id="production" xmlns="http://www.w3.org/2000/svg" xmlns:xlink="http://www.w3.org/1999/xlink" viewBox="0 0 160 160">
<style type="text/css">
	.st0{fill:none;stroke:#0093cf;stroke-width:5;stroke-linecap:round;stroke-linejoin:round;stroke-miterlimit:10;}
	.st1{fill:#0093cf;}
</style>
<polyline class="st0" points="13.9,116.3 4.5,116.3 4.5,3.8 153.5,3.8 153.5,116.3 141.5,116.3 "/>
<rect x="23.3" y="22.3" class="st0" width="56.4" height="19.8"/>
<rect x="116.3" y="22.3" class="st0" width="19.4" height="19.8"/>
<line class="st0" x1="79.7" y1="32.2" x2="116.3" y2="32.2"/>
<line class="st0" x1="29.9" y1="51.9" x2="79.7" y2="51.9"/>
<line class="st0" x1="23.3" y1="61.8" x2="64.5" y2="61.8"/>
<line class="st0" x1="23.3" y1="71" x2="53" y2="71"/>
<line class="st0" x1="23.3" y1="80.3" x2="41.1" y2="80.3"/>
<line class="st0" x1="98" y1="32.2" x2="98" y2="60"/>
<path class="st1" d="M97.7,99.4L90.4,96c-0.6-0.3-1.3,0-1.7,0.7l-8.2,13.4c-0.4,0.6-1.1,0.8-1.8,0.5l-22.3-10.3c0,0,0-0.1,0-0.1
	c0-5.7-4.6-10.4-10.4-10.4c-2.4,0-4.6,0.8-6.4,2.2c-0.2,0.2-0.5,0.2-0.8,0.1l-9.4-4.4c-2.4-1.1-5.3-0.4-6.8,1.8
	c-0.8,1.2-0.9,4-0.9,4v47.6c0,0.1-0.1,0.2-0.2,0.2h-5.3c-1,0-1.8,0.8-1.8,1.8v8.9c0,1,0.8,1.8,1.8,1.8h72.4c1,0,1.8-0.8,1.8-1.8
	v-8.9c0-1-0.8-1.8-1.8-1.8h-9.3c0-0.1,0.1-0.1,0.1-0.2l11.5-18.8c0.1-0.1,0.1-0.3,0.2-0.4l6.9-20.9C98.5,100.4,98.2,99.6,97.7,99.4z
	 M46,94.8c3,0,5.4,2.4,5.4,5.4c0,3-2.4,5.4-5.4,5.4c-3,0-5.4-2.4-5.4-5.4C40.6,97.2,43.1,94.8,46,94.8z M26.3,141.2V99.1
	c0-0.6,0.6-0.9,1.1-0.7l8.2,3.8c0.2,0.1,0.4,0.3,0.4,0.5c0.6,2.4,2,4.5,4,5.9c0.3,0.2,0.4,0.6,0.3,0.9c-1.5,4.1-11.2,29.7-12,31.8
	c0,0.1-0.1,0.1-0.2,0.1h-1.5C26.4,141.4,26.3,141.3,26.3,141.2z M33,141.1L44.4,111c0.1-0.3,0.4-0.5,0.8-0.5c0.3,0,0.6,0,0.9,0
	c0.3,0,0.6,0,0.9,0c0.3,0,0.7,0.2,0.8,0.5L59,141.1c0.1,0.1-0.1,0.3-0.2,0.3H33.3C33.1,141.4,33,141.3,33,141.1z M63.8,141.3
	l-11.2-29.7c-0.2-0.6,0.4-1.2,1-1l20.6,9.6c0.6,0.3,1,1,0.7,1.7l-4.9,15c-0.2,0.7,0,1.5,0.5,1.7l5.3,2.4c0.2,0.1,0.1,0.4-0.1,0.4H64
	C63.9,141.4,63.9,141.4,63.8,141.3z"/>
<g>
	<circle class="st1" cx="116.7" cy="89.2" r="5.8"/>
	<path class="st1" d="M131.4,90.3c0-0.4,0.3-0.8,0.7-0.9l2.3-0.5c0.5-0.1,0.8-0.6,0.7-1.1l-0.9-4.6c-0.1-0.5-0.6-0.8-1.1-0.7
		l-2.3,0.5c-0.4,0.1-0.8-0.1-1-0.5c-0.5-1.1-1.2-2.1-2-2.9c-0.3-0.3-0.3-0.8-0.1-1.1l1.3-2c0.3-0.4,0.2-1-0.3-1.3l-3.9-2.6
		c-0.4-0.3-1-0.2-1.3,0.3l-1.3,2c-0.2,0.4-0.7,0.5-1.1,0.4c-1.1-0.4-2.3-0.6-3.5-0.7c-0.4,0-0.8-0.3-0.9-0.7l-0.5-2.3
		c-0.1-0.5-0.6-0.8-1.1-0.7l-4.6,0.9c-0.5,0.1-0.8,0.6-0.7,1.1l0.5,2.3c0.1,0.4-0.1,0.8-0.5,1c-1.1,0.5-2.1,1.2-2.9,2
		c-0.3,0.3-0.8,0.3-1.1,0.1l-2-1.3c-0.4-0.3-1-0.2-1.3,0.3l-2.6,3.9c-0.3,0.4-0.2,1,0.3,1.3l2,1.3c0.4,0.2,0.5,0.7,0.4,1.1
		c-0.4,1.1-0.6,2.3-0.7,3.5c0,0.4-0.3,0.8-0.7,0.9l-2.3,0.5c-0.5,0.1-0.8,0.6-0.7,1.1l0.9,4.6c0.1,0.5,0.6,0.8,1.1,0.7l2.3-0.5
		c0.4-0.1,0.8,0.1,1,0.5c0.5,1.1,1.2,2.1,2,2.9c0.3,0.3,0.3,0.8,0.1,1.1l-1.3,2c-0.3,0.4-0.2,1,0.3,1.3l3.9,2.6
		c0.4,0.3,1,0.2,1.3-0.3l1.3-2c0.2-0.4,0.7-0.5,1.1-0.4c1.1,0.4,2.3,0.6,3.5,0.7c0.4,0,0.8,0.3,0.9,0.7l0.5,2.3
		c0.1,0.5,0.6,0.8,1.1,0.7l4.6-0.9c0.5-0.1,0.8-0.6,0.7-1.1l-0.5-2.3c-0.1-0.4,0.1-0.8,0.5-1c1.1-0.5,2.1-1.2,2.9-2
		c0.3-0.3,0.8-0.3,1.1-0.1l2,1.3c0.4,0.3,1,0.2,1.3-0.3l2.6-3.9c0.3-0.4,0.2-1-0.3-1.3l-2-1.3c-0.4-0.2-0.5-0.7-0.4-1.1
		C131.1,92.6,131.3,91.5,131.4,90.3z M118.6,99c-5.4,1.1-10.7-2.4-11.8-7.9c-1.1-5.4,2.4-10.7,7.9-11.8c5.4-1.1,10.7,2.4,11.8,7.9
		C127.6,92.6,124.1,97.9,118.6,99z"/>
	<path class="st1" d="M97.7,70.2c8.5-8.5,21.2-10.1,31.3-4.8c0.3,0.2,0.4,0.6,0.1,0.8l-0.8,0.8c-0.3,0.3-0.1,0.8,0.3,0.8l6,0.6
		c0.3,0,0.6-0.2,0.5-0.5l-0.6-6c0-0.4-0.5-0.6-0.8-0.3l-1.1,1.1c-0.2,0.2-0.4,0.2-0.6,0.1c-11.7-6.8-27-5.2-37,4.8
		c-9.8,9.8-11.5,24.6-5.2,36.2c0.6,1.1,2.1,1.3,2.9,0.4c0.6-0.6,0.7-1.4,0.3-2.2C87.6,91.8,89.1,78.8,97.7,70.2z"/>
	<path class="st1" d="M143.5,74.6c-0.6-1.1-2.1-1.3-2.9-0.4c-0.6,0.6-0.7,1.4-0.3,2.2c5.5,10.2,4,23.2-4.6,31.8
		c-8.7,8.7-21.9,10.1-32.1,4.4c-0.2-0.1-0.3-0.4-0.1-0.6l1.2-1.2c0.2-0.2,0.1-0.6-0.2-0.6l-6.4-0.6c-0.2,0-0.4,0.2-0.4,0.4l0.6,6.4
		c0,0.3,0.4,0.5,0.6,0.2l1.3-1.3c0.1-0.1,0.3-0.1,0.5-0.1c11.8,7.2,27.4,5.8,37.6-4.4C148,101,149.8,86.1,143.5,74.6z"/>
</g>
</svg>
